assets/filters/lavender.cube
TITLE "Lavender"
LUT_3D_SIZE 2

# Input: R G B (ranging 0.0 to 1.0)
# Purple-pink: reds and blues boosted, greens suppressed

0.030 0.000 0.040
1.000 0.000 0.040
0.030 0.850 0.040
1.000 0.850 0.040
0.030 0.000 1.000
1.000 0.000 1.000
0.030 0.850 1.000
1.000 0.850 1.000
